X:523
T:Joy of My Life, The
R:jig
S:Jon Antonsson, who got it from Kevin Crawford
H:Usually in G, #176
Z:id:hn-jig-523
M:6/8
L:1/8
K:F
F2F GFG | A2d cAG | A2A FGA | GFA D2E |
F2F ~G3 | A2d cAG | ~A3 FGA |1 GFE F3 :|2 GFE F2f ||
|: edc f2d | edc d2c | A2d cAG | Add dcB |
A2d cAG | ~A3 cAG | A2A FGA |1 GFE F2f :|2 GFE F3 ||

